; HEADER_BLOCK_START
; generated by OrcaSlicer 2.3.1 on 2025-12-19 at 01:25:28
; total layer number: 110
; filament_density: 1.24
; filament_diameter: 1.75
; max_z_height: 22.00
; HEADER_BLOCK_END

; external perimeters extrusion width = 0.45mm
; perimeters extrusion width = 0.45mm
; infill extrusion width = 0.45mm
; solid infill extrusion width = 0.45mm
; top infill extrusion width = 0.40mm
; first layer extrusion width = 0.42mm

; EXECUTABLE_BLOCK_START
M73 P0 R28
M201 X500 Y500 Z100 E5000
M203 X500 Y500 Z10 E60
M204 P500 R1000 T500
M205 X8.00 Y8.00 Z0.40 E5.00 ; sets the jerk limits, mm/sec
;TYPE:Custom
G90 ; use absolute coordinates
M83 ; extruder relative mode
M140 S55 ; set final bed temp
M104 S150 ; set temporary nozzle temp to prevent oozing during homing
G4 S10 ; allow partial nozzle warmup
G28 ; home all axis
G1 Z50 F240
G1 X2 Y10 F3000
M104 S220 ; set final nozzle temp
M190 S55 ; wait for bed temp to stabilize
M109 S220 ; wait for nozzle temp to stabilize
G1 Z0.28 F240
G92 E0
G1 Y140 E10 F1500 ; prime the nozzle
M73 P1 R28
G1 X2.3 F5000
G92 E0
G1 Y10 E10 F1200 ; prime the nozzle
G92 E0
G90
G21
M83 ; use relative distances for extrusion
; Filament gcode
M106 S0
;LAYER_CHANGE
;Z:0.2
;HEIGHT:0.2
;BEFORE_LAYER_CHANGE
;0.2
G92 E0

G1 E-4 F3600
M73 P2 R28
;_SET_FAN_SPEED_CHANGING_LAYER
G1 Z.6 F9000
G1 X97.206 Y97.296
G1 Z.6
G1 Z.2
G1 E4 F2400
;TYPE:Skirt
;WIDTH:0.42
G1 F3000
G1 X97.883 Y96.69 E.02792
G1 X99 Y96.434 E.0352
G1 X121 Y96.434 E.676
G1 X122.363 Y96.827 E.04359
G1 X123.31 Y97.883 E.04359
G1 X123.566 Y99 E.0352
G1 X123.566 Y121 E.676
G1 X123.173 Y122.363 E.04359
G1 X122.117 Y123.31 E.04359
G1 X121 Y123.566 E.0352
M73 P2 R27
G1 X99 Y123.566 E.676
G1 X97.637 Y123.173 E.04359
G1 X96.69 Y122.117 E.04359
G1 X96.434 Y121 E.0352
G1 X96.434 Y99 E.676
G1 X96.827 Y97.637 E.04359
G1 X97.177 Y97.323 E.01444
G1 X97.394 Y97.603 F9000
G1 F3000
G1 X98.235 Y96.949 E.03273
G1 X99 Y96.811 E.02388
G1 X121 Y96.811 E.676
G1 X122.248 Y97.202 E.04019
G1 X123.051 Y98.235 E.04019
G1 X123.189 Y99 E.02388
G1 X123.189 Y121 E.676
G1 X122.798 Y122.248 E.04019
G1 X121.765 Y123.051 E.04019
G1 X121 Y123.189 E.02388
G1 X99 Y123.189 E.676
G1 X97.752 Y122.798 E.04019
G1 X96.949 Y121.765 E.04019
G1 X96.811 Y121 E.02388
G1 X96.811 Y99 E.676
G1 X97.202 Y97.752 E.04019
G1 X97.362 Y97.627 E.00623
; printing object Cube id:9223549512627337094 copy 0
G1 E-2.8 F3600
;WIPE_START
G1 F3000
G1 X98.152 Y97.014 E-1.2
;WIPE_END
G1 Z.6 F9000
G1 X120.291 Y120.291 Z.6
G1 Z.2
G1 E4 F2400
;TYPE:Inner wall
;WIDTH:0.419999
G1 F900
G1 X99.709 Y120.291 E.63245
G1 X99.709 Y99.709 E.63245
G1 X120.291 Y99.709 E.63245
G1 X120.291 Y120.251 E.63123
G1 X120.69 Y120.69 F9000
;TYPE:Outer wall
G1 F900
G1 X99.31 Y120.69 E.65695
G1 X99.31 Y99.31 E.65695
M73 P3 R27
G1 X120.69 Y99.31 E.65695
G1 X120.69 Y120.65 E.65572
G1 E-2.8 F3600
;WIPE_START
G1 F900
G1 X119.69 Y120.652 E-1.2
;WIPE_END
G1 Z.6 F9000
G1 X120.178 Y100.589 Z.6
G1 Z.2
G1 E4 F2400
;TYPE:Bottom surface
;WIDTH:0.42242
G1 F2100
G1 X119.581 Y99.991 E.02614
G1 X119.044 Y99.991 E.0166
G1 X120.009 Y100.956 E.04219
G1 X120.009 Y101.493 E.0166
G1 X118.507 Y99.991 E.06566
G1 X117.971 Y99.991 E.0166
G1 X120.009 Y102.029 E.08913
G1 X120.009 Y102.566 E.0166
G1 X117.434 Y99.991 E.11261
G1 X116.897 Y99.991 E.0166
G1 X120.009 Y103.103 E.13608
G1 X120.009 Y103.64 E.0166
G1 X116.36 Y99.991 E.15955
G1 X115.824 Y99.991 E.0166
G1 X120.009 Y104.176 E.18302
G1 X120.009 Y104.713 E.0166
G1 X115.287 Y99.991 E.20649
G1 X114.75 Y99.991 E.0166
G1 X120.009 Y105.25 E.22996
G1 X120.009 Y105.786 E.0166
G1 X114.214 Y99.991 E.25344
G1 X113.677 Y99.991 E.0166
G1 X120.009 Y106.323 E.27691
G1 X120.009 Y106.86 E.0166
G1 X113.14 Y99.991 E.30038
G1 X112.604 Y99.991 E.0166
G1 X120.009 Y107.396 E.32385
G1 X120.009 Y107.933 E.0166
G1 X112.067 Y99.991 E.34732
G1 X111.53 Y99.991 E.0166
G1 X120.009 Y108.47 E.37079
G1 X120.009 Y109.006 E.0166
G1 X110.994 Y99.991 E.39427
G1 X110.457 Y99.991 E.0166
G1 X120.009 Y109.543 E.41774
G1 X120.009 Y110.08 E.0166
G1 X109.92 Y99.991 E.44121
G1 X109.383 Y99.991 E.0166
G1 X120.009 Y110.617 E.46468
G1 X120.009 Y111.153 E.0166
G1 X108.847 Y99.991 E.48815
G1 X108.31 Y99.991 E.0166
G1 X120.009 Y111.69 E.51162
G1 X120.009 Y112.227 E.0166
G1 X107.773 Y99.991 E.5351
G1 X107.237 Y99.991 E.0166
G1 X120.009 Y112.763 E.55857
G1 X120.009 Y113.3 E.0166
G1 X106.7 Y99.991 E.58204
G1 X106.163 Y99.991 E.0166
G1 X120.009 Y113.837 E.60551
G1 X120.009 Y114.373 E.0166
G1 X105.627 Y99.991 E.62898
G1 X105.09 Y99.991 E.0166
G1 X120.009 Y114.91 E.65245
G1 X120.009 Y115.447 E.0166
G1 X104.553 Y99.991 E.67593
G1 X104.016 Y99.991 E.0166
G1 X120.009 Y115.984 E.6994
G1 X120.009 Y116.52 E.0166
M73 P4 R27
G1 X103.48 Y99.991 E.72287
G1 X102.943 Y99.991 E.0166
G1 X120.009 Y117.057 E.74634
G1 X120.009 Y117.594 E.0166
G1 X102.406 Y99.991 E.76981
G1 X101.87 Y99.991 E.0166
G1 X120.009 Y118.13 E.79328
G1 X120.009 Y118.667 E.0166
G1 X101.333 Y99.991 E.81676
G1 X100.796 Y99.991 E.0166
G1 X120.009 Y119.204 E.84023
G1 X120.009 Y119.74 E.0166
G1 X100.26 Y99.991 E.8637
G1 X99.991 Y99.991 E.0083
G1 X99.991 Y100.26 E.0083
G1 X119.74 Y120.009 E.86369
G1 X119.204 Y120.009 E.0166
G1 X99.991 Y100.796 E.84022
G1 X99.991 Y101.333 E.0166
G1 X118.667 Y120.009 E.81675
G1 X118.13 Y120.009 E.0166
G1 X99.991 Y101.87 E.79328
G1 X99.991 Y102.407 E.0166
G1 X117.593 Y120.009 E.76981
G1 X117.057 Y120.009 E.0166
G1 X99.991 Y102.943 E.74634
G1 X99.991 Y103.48 E.0166
G1 X116.52 Y120.009 E.72286
G1 X115.983 Y120.009 E.0166
G1 X99.991 Y104.017 E.69939
G1 X99.991 Y104.553 E.0166
G1 X115.447 Y120.009 E.67592
G1 X114.91 Y120.009 E.0166
G1 X99.991 Y105.09 E.65245
G1 X99.991 Y105.627 E.0166
G1 X114.373 Y120.009 E.62898
G1 X113.837 Y120.009 E.0166
G1 X99.991 Y106.163 E.60551
G1 X99.991 Y106.7 E.0166
G1 X113.3 Y120.009 E.58203
G1 X112.763 Y120.009 E.0166
G1 X99.991 Y107.237 E.55856
G1 X99.991 Y107.773 E.0166
G1 X112.227 Y120.009 E.53509
G1 X111.69 Y120.009 E.0166
G1 X99.991 Y108.31 E.51162
G1 X99.991 Y108.847 E.0166
M73 P5 R27
G1 X111.153 Y120.009 E.48815
G1 X110.616 Y120.009 E.0166
G1 X99.991 Y109.384 E.46468
G1 X99.991 Y109.92 E.0166
G1 X110.08 Y120.009 E.4412
G1 X109.543 Y120.009 E.0166
G1 X99.991 Y110.457 E.41773
G1 X99.991 Y110.994 E.0166
G1 X109.006 Y120.009 E.39426
G1 X108.47 Y120.009 E.0166
G1 X99.991 Y111.53 E.37079
G1 X99.991 Y112.067 E.0166
G1 X107.933 Y120.009 E.34732
G1 X107.396 Y120.009 E.0166
G1 X99.991 Y112.604 E.32385
G1 X99.991 Y113.14 E.0166
G1 X106.86 Y120.009 E.30037
G1 X106.323 Y120.009 E.0166
G1 X99.991 Y113.677 E.2769
G1 X99.991 Y114.214 E.0166
G1 X105.786 Y120.009 E.25343
G1 X105.25 Y120.009 E.0166
G1 X99.991 Y114.75 E.22996
G1 X99.991 Y115.287 E.0166
G1 X104.713 Y120.009 E.20649
G1 X104.176 Y120.009 E.0166
G1 X99.991 Y115.824 E.18302
G1 X99.991 Y116.361 E.0166
G1 X103.639 Y120.009 E.15954
G1 X103.103 Y120.009 E.0166
G1 X99.991 Y116.897 E.13607
G1 X99.991 Y117.434 E.0166
G1 X102.566 Y120.009 E.1126
G1 X102.029 Y120.009 E.0166
G1 X99.991 Y117.971 E.08913
G1 X99.991 Y118.507 E.0166
G1 X101.493 Y120.009 E.06566
G1 X100.956 Y120.009 E.0166
G1 X99.991 Y119.044 E.04219
G1 X99.991 Y119.581 E.0166
G1 X100.589 Y120.178 E.02614
; stop printing object Cube id:9223549512627337094 copy 0
M106 S255
;LAYER_CHANGE
;Z:0.4
;HEIGHT:0.2
;BEFORE_LAYER_CHANGE
;0.4
G92 E0

G1 E-2.8 F3600
;WIPE_START
G1 F2100
G1 X99.991 Y119.581 E-1.01416
G1 X99.991 Y119.426 E-.18584
;WIPE_END
;_SET_FAN_SPEED_CHANGING_LAYER
G1 Z.8 F9000
G1 X96.434 Y119.426 Z.8
G1 Z.4
G1 E4 F2400
;TYPE:Skirt
;WIDTH:0.42
G1 F3000
G1 X96.434 Y99 E.62763
G1 X96.827 Y97.637 E.04359
G1 X97.883 Y96.69 E.04359
G1 X99 Y96.434 E.0352
G1 X121 Y96.434 E.676
G1 X122.363 Y96.827 E.04359
G1 X123.31 Y97.883 E.04359
G1 X123.566 Y99 E.0352
G1 X123.566 Y121 E.676
G1 X123.173 Y122.363 E.04359
G1 X122.117 Y123.31 E.04359
G1 X121 Y123.566 E.0352
G1 X99 Y123.566 E.676
G1 X97.637 Y123.173 E.04359
G1 X96.69 Y122.117 E.04359
G1 X96.434 Y121 E.0352
G1 X96.434 Y119.466 E.04714
G1 X96.811 Y119.466 F9000
G1 F3000
G1 X96.811 Y99 E.62886
G1 X97.202 Y97.752 E.04019
G1 X98.235 Y96.949 E.04019
G1 X99 Y96.811 E.02388
G1 X121 Y96.811 E.676
G1 X122.248 Y97.202 E.04019
G1 X123.051 Y98.235 E.04019
G1 X123.189 Y99 E.02388
G1 X123.189 Y121 E.676
G1 X122.798 Y122.248 E.04019
G1 X121.765 Y123.051 E.04019
G1 X121 Y123.189 E.02388
G1 X99 Y123.189 E.676
G1 X97.752 Y122.798 E.04019
G1 X96.949 Y121.765 E.04019
G1 X96.811 Y121 E.02388
G1 X96.811 Y119.506 E.04591
; printing object Cube id:9223549512627337094 copy 0
G1 E-2.8 F3600
;WIPE_START
G1 F3000
G1 X96.811 Y118.506 E-1.2
;WIPE_END
G1 Z.8 F9000
G1 X120.346 Y120.346 Z.8
G1 Z.4
G1 E4 F2400
;TYPE:Inner wall
;WIDTH:0.449999
G1 X99.654 Y120.346 E.68642
G1 X99.654 Y99.654 E.68642
G1 X120.346 Y99.654 E.68642
M73 P5 R26
G1 X120.346 Y120.306 E.68509
G1 X120.775 Y120.775 F9000
;TYPE:Outer wall
G1 F2400
G1 X99.225 Y120.775 E.71485
G1 X99.225 Y99.225 E.71485
G1 X120.775 Y99.225 E.71485
G1 X120.775 Y120.735 E.71353
M73 P6 R26
G1 E-2.8 F3600
;WIPE_START
G1 F2400
G1 X119.775 Y120.737 E-1.2
;WIPE_END
G1 Z.8 F9000
G1 X118.719 Y119.939 Z.8
G1 Z.4
G1 E4 F2400
;TYPE:Internal solid infill
G1 F3000
G1 X119.939 Y119.939 E.0405
G1 X119.939 Y118.719 E.0405
G1 X118.747 Y119.911 E.05594
G1 X119.601 Y119.548 F9000
;WIDTH:0.350958
G1 F3000
G1 X119.543 Y119.582 E.00167
G1 X119.6 Y119.614 E.00164
G1 X120.224 Y117.915 F9000
;WIDTH:0.451232
G1 F3000
G1 X118.098 Y120.041 E.10006
G1 X117.52 Y120.041 E.01921
G1 X120.041 Y117.52 E.11861
G1 X120.041 Y116.943 E.01921
G1 X116.943 Y120.041 E.14579
G1 X116.365 Y120.041 E.01921
G1 X120.041 Y116.365 E.17296
G1 X120.041 Y115.788 E.01921
G1 X115.788 Y120.041 E.20013
G1 X115.211 Y120.041 E.01921
G1 X120.041 Y115.211 E.2273
G1 X120.041 Y114.633 E.01921
G1 X114.633 Y120.041 E.25447
G1 X114.056 Y120.041 E.01921
G1 X120.041 Y114.056 E.28164
G1 X120.041 Y113.478 E.01921
G1 X113.478 Y120.041 E.30881
G1 X112.901 Y120.041 E.01921
G1 X120.041 Y112.901 E.33598
G1 X120.041 Y112.323 E.01921
G1 X112.323 Y120.041 E.36315
G1 X111.746 Y120.041 E.01921
G1 X120.041 Y111.746 E.39032
G1 X120.041 Y111.168 E.01921
G1 X111.168 Y120.041 E.41749
G1 X110.591 Y120.041 E.01921
G1 X120.041 Y110.591 E.44467
G1 X120.041 Y110.014 E.01921
G1 X110.014 Y120.041 E.47184
G1 X109.436 Y120.041 E.01921
G1 X120.041 Y109.436 E.49901
G1 X120.041 Y108.859 E.01921
G1 X108.859 Y120.041 E.52618
G1 X108.281 Y120.041 E.01921
G1 X120.041 Y108.281 E.55335
G1 X120.041 Y107.704 E.01921
G1 X107.704 Y120.041 E.58052
G1 X107.126 Y120.041 E.01921
G1 X120.041 Y107.126 E.60769
G1 X120.041 Y106.549 E.01921
G1 X106.549 Y120.041 E.63486
G1 X105.972 Y120.041 E.01921
G1 X120.041 Y105.972 E.66203
G1 X120.041 Y105.394 E.01921
G1 X105.394 Y120.041 E.6892
G1 X104.817 Y120.041 E.01921
G1 X120.041 Y104.817 E.71637
G1 X120.041 Y104.239 E.01921
G1 X104.239 Y120.041 E.74355
G1 X103.662 Y120.041 E.01921
G1 X120.041 Y103.662 E.77072
G1 X120.041 Y103.084 E.01921
G1 X103.084 Y120.041 E.79789
G1 X102.507 Y120.041 E.01921
G1 X120.041 Y102.507 E.82506
G1 X120.041 Y101.929 E.01921
G1 X101.929 Y120.041 E.85223
G1 X101.352 Y120.041 E.01921
G1 X120.041 Y101.352 E.8794
G1 X120.041 Y100.775 E.01921
G1 X100.775 Y120.041 E.90657
G1 X100.197 Y120.041 E.01921
G1 X120.041 Y100.197 E.93374
G1 X120.041 Y99.959 E.00793
G1 X119.702 Y99.959 E.01128
G1 X99.959 Y119.702 E.929
G1 X99.959 Y119.125 E.01921
G1 X119.125 Y99.959 E.90182
G1 X118.547 Y99.959 E.01921
G1 X99.959 Y118.547 E.87465
G1 X99.959 Y117.97 E.01921
G1 X117.97 Y99.959 E.84748
G1 X117.392 Y99.959 E.01921
M73 P7 R26
G1 X99.959 Y117.392 E.82031
G1 X99.959 Y116.815 E.01921
G1 X116.815 Y99.959 E.79314
G1 X116.237 Y99.959 E.01921
G1 X99.959 Y116.237 E.76597
G1 X99.959 Y115.66 E.01921
G1 X115.66 Y99.959 E.7388
G1 X115.082 Y99.959 E.01921
G1 X99.959 Y115.082 E.71163
G1 X99.959 Y114.505 E.01921
G1 X114.505 Y99.959 E.68446
G1 X113.928 Y99.959 E.01921
G1 X99.959 Y113.928 E.65729
G1 X99.959 Y113.35 E.01921
G1 X113.35 Y99.959 E.63012
G1 X112.773 Y99.959 E.01921
G1 X99.959 Y112.773 E.60294
G1 X99.959 Y112.195 E.01921
G1 X112.195 Y99.959 E.57577
G1 X111.618 Y99.959 E.01921
G1 X99.959 Y111.618 E.5486
G1 X99.959 Y111.04 E.01921
G1 X111.04 Y99.959 E.52143
G1 X110.463 Y99.959 E.01921
G1 X99.959 Y110.463 E.49426
G1 X99.959 Y109.886 E.01921
G1 X109.886 Y99.959 E.46709
G1 X109.308 Y99.959 E.01921
G1 X99.959 Y109.308 E.43992
G1 X99.959 Y108.731 E.01921
G1 X108.731 Y99.959 E.41275
G1 X108.153 Y99.959 E.01921
G1 X99.959 Y108.153 E.38558
G1 X99.959 Y107.576 E.01921
G1 X107.576 Y99.959 E.35841
G1 X106.998 Y99.959 E.01921
G1 X99.959 Y106.998 E.33124
G1 X99.959 Y106.421 E.01921
G1 X106.421 Y99.959 E.30406
G1 X105.843 Y99.959 E.01921
G1 X99.959 Y105.843 E.27689
G1 X99.959 Y105.266 E.01921
G1 X105.266 Y99.959 E.24972
G1 X104.689 Y99.959 E.01921
G1 X99.959 Y104.689 E.22255
G1 X99.959 Y104.111 E.01921
G1 X104.111 Y99.959 E.19538
G1 X103.534 Y99.959 E.01921
G1 X99.959 Y103.534 E.16821
G1 X99.959 Y102.956 E.01921
G1 X102.956 Y99.959 E.14104
G1 X102.379 Y99.959 E.01921
G1 X99.959 Y102.379 E.11387
G1 X99.959 Y101.801 E.01921
G1 X101.801 Y99.959 E.0867
G1 X101.224 Y99.959 E.01921
G1 X99.959 Y101.224 E.05953
G1 X99.959 Y100.646 E.01921
G1 X100.83 Y99.776 E.04097
G1 X100.075 Y100.009 F9000
;WIDTH:0.429542
G1 F3000
G1 X100.002 Y100.05 E.00264
G1 X100.079 Y100.085 E.00265
; stop printing object Cube id:9223549512627337094 copy 0
;LAYER_CHANGE
;Z:0.6
;HEIGHT:0.2
;BEFORE_LAYER_CHANGE
;0.6
G92 E0

G1 E-3.79861 F3600
;WIPE_START
G1 F3000
G1 X100.002 Y100.05 E-.10094
G1 X100.075 Y100.009 E-.10045
;WIPE_END
;_SET_FAN_SPEED_CHANGING_LAYER
; printing object Cube id:9223549512627337094 copy 0
G1 Z1 F9000
G1 X120.346 Y120.346 Z1
G1 Z.6
G1 E4 F2400
;TYPE:Inner wall
;WIDTH:0.449999
G1 X99.654 Y120.346 E.68642
G1 X99.654 Y99.654 E.68642
G1 X120.346 Y99.654 E.68642
G1 X120.346 Y120.306 E.68509
G1 X120.775 Y120.775 F9000
;TYPE:Outer wall
G1 F2400
G1 X99.225 Y120.775 E.71485
G1 X99.225 Y99.225 E.71485
G1 X120.775 Y99.225 E.71485
G1 X120.775 Y120.735 E.71353
G1 E-2.8 F3600
;WIPE_START
G1 F2400
G1 X119.775 Y120.737 E-1.2
;WIPE_END
G1 Z1 F9000
G1 X100.075 Y119.908 Z1
G1 Z.6
M73 P8 R26
G1 E4 F2400
;TYPE:Internal solid infill
;WIDTH:0.429544
G1 F3000
G1 X100.002 Y119.95 E.00264
G1 X100.079 Y119.984 E.00265
G1 X117.915 Y99.776 F9000
;WIDTH:0.451232
G1 F3000
G1 X120.041 Y101.902 E.10006
G1 X120.041 Y102.48 E.01921
G1 X117.52 Y99.959 E.11861
G1 X116.943 Y99.959 E.01921
G1 X120.041 Y103.057 E.14579
G1 X120.041 Y103.635 E.01921
G1 X116.365 Y99.959 E.17296
G1 X115.788 Y99.959 E.01921
G1 X120.041 Y104.212 E.20013
G1 X120.041 Y104.789 E.01921
G1 X115.211 Y99.959 E.2273
G1 X114.633 Y99.959 E.01921
G1 X120.041 Y105.367 E.25447
G1 X120.041 Y105.944 E.01921
G1 X114.056 Y99.959 E.28164
G1 X113.478 Y99.959 E.01921
G1 X120.041 Y106.522 E.30881
G1 X120.041 Y107.099 E.01921
G1 X112.901 Y99.959 E.33598
G1 X112.323 Y99.959 E.01921
G1 X120.041 Y107.677 E.36315
G1 X120.041 Y108.254 E.01921
G1 X111.746 Y99.959 E.39032
G1 X111.168 Y99.959 E.01921
G1 X120.041 Y108.832 E.41749
G1 X120.041 Y109.409 E.01921
G1 X110.591 Y99.959 E.44467
G1 X110.014 Y99.959 E.01921
G1 X120.041 Y109.986 E.47184
G1 X120.041 Y110.564 E.01921
G1 X109.436 Y99.959 E.49901
G1 X108.859 Y99.959 E.01921
G1 X120.041 Y111.141 E.52618
G1 X120.041 Y111.719 E.01921
G1 X108.281 Y99.959 E.55335
G1 X107.704 Y99.959 E.01921
G1 X120.041 Y112.296 E.58052
G1 X120.041 Y112.874 E.01921
G1 X107.126 Y99.959 E.60769
G1 X106.549 Y99.959 E.01921
G1 X120.041 Y113.451 E.63486
G1 X120.041 Y114.028 E.01921
G1 X105.972 Y99.959 E.66203
G1 X105.394 Y99.959 E.01921
G1 X120.041 Y114.606 E.6892
G1 X120.041 Y115.183 E.01921
G1 X104.817 Y99.959 E.71637
G1 X104.239 Y99.959 E.01921
G1 X120.041 Y115.761 E.74355
G1 X120.041 Y116.338 E.01921
G1 X103.662 Y99.959 E.77072
G1 X103.084 Y99.959 E.01921
G1 X120.041 Y116.916 E.79789
G1 X120.041 Y117.493 E.01921
G1 X102.507 Y99.959 E.82506
G1 X101.929 Y99.959 E.01921
G1 X120.041 Y118.071 E.85223
G1 X120.041 Y118.648 E.01921
G1 X101.352 Y99.959 E.8794
G1 X100.775 Y99.959 E.01921
G1 X120.041 Y119.225 E.90657
G1 X120.041 Y119.803 E.01921
G1 X100.197 Y99.959 E.93374
G1 X99.959 Y99.959 E.00793
G1 X99.959 Y100.298 E.01128
G1 X119.702 Y120.041 E.929
